X:154
T: Weihnachtslied des 14. Jahrhunderts
N: A0521A
O: Europa, Mitteleuropa, Deutschland
N: Hs. aus dem 14./15. Jh, von Boehme uebertragen ud berichtigt.
R: Romanze, Ballade, Lied, religioeses Lied
M: 6/4
L: 1/4
K: F
c2AF2A | c2dc3 |
c2AFFA | c2dc3 |
c2BAAc | B2AG2
A | c2AF2A | G2DG2A | F3F3

